X:1
T:Miller's Maggot
M:6/8
L:1/8
B:the Portland Collection v.1 p. 135
Z:2012 John Chambers <jc:trillian.mit.edu>
R:jig
K:G
|:"G"G2A BBA | "Em"BBA BGE | "G"G2A BBA | "Em"B2e "(D)"edB |\
| "G"G2A BBA | "Em"BBA BGE | "C"gfe "D"dBA |1 "Em"Bee "Bm"edB :|2 "Em"Bee e3 |]
|:"C"e2f gge | "G"d2B BAG | "C"e2f ~g3 | "D"aga "Em"bgf |\
| "C"e2f gge | "G"d2B BAG | "Am"A2B "(D)"cBA |1 "Em"B2e e3 :|2 "Em"B2e edB |]
